X: 33
T:Chocolate Song, The
M:4/4
L:1/8
Q:120
C:Marcus Turner
K:G
B,C|"G"DD D>D DD ED|DG3-G2DD|
DG GB Bd dB|"D"A6Bc|!
"G"dB "D"Ac "G"BG GA|BG "C"EG "G"ED Bc|
1 dB "D"Ac "G"BG "C"FE|"D"D6:|
2 dB "D"Ac "G"BG "D"FA|"G"G6:||
% Output from ABC2Win  Version 2.1 i on 5/08/2001
